public/flags/RS.svg

<svg fill="none" height="53" viewBox="0 0 61 53" width="61" xmlns="http://www.w3.org/2000/svg" xmlns:xlink="http://www.w3.org/1999/xlink"><mask id="a" height="43" maskUnits="userSpaceOnUse" width="59" x="1" y="3"><rect fill="#fff" height="41.4393" rx="3.7125" stroke="#fff" stroke-width="1.06071" width="57.9393" x="1.53036" y="3.53036"/></mask><mask id="b" height="18" maskUnits="userSpaceOnUse" width="12" x="13" y="17"><path clip-rule="evenodd" d="m13.6428 24.2501c0-1.3705.7238-4.4232 1.1323-6.037.1567-.6188.7156-1.0464 1.354-1.0464h6.2681c.6372 0 1.1953.4259 1.3526 1.0433.4087 1.6044 1.1311 4.6383 1.1311 6.0401 0 1.5838-1.0552 5.7432-1.3365 6.8238-.0451.1731-.1218.3322-.2351.4706-.5376.657-2.2925 2.6222-4.0474 2.6222-1.756 0-3.512-1.9676-4.0485-2.6234-.1126-.1377-.189-.2957-.2341-.4677-.2815-1.0729-1.3365-5.2024-1.3365-6.8255z" fill="#fff" fill-rule="evenodd"/></mask><rect fill="#fff" height="41.4393" rx="3.7125" stroke="#f5f5f5" stroke-width="1.06071" width="57.9393" x="1.53036" y="3.53036"/><g mask="url(#a)"><g clip-rule="evenodd" fill-rule="evenodd"><path d="m1 31.3334h59v-14.1667h-59z" fill="#17508f"/><path d="m1 17.1667h59v-14.1667h-59z" fill="#e1444d"/><path d="m13.6428 24.2501c0-1.3705.7238-4.4232 1.1323-6.037.1567-.6188.7156-1.0464 1.354-1.0464h6.2681c.6372 0 1.1953.4259 1.3526 1.0433.4087 1.6044 1.1311 4.6383 1.1311 6.0401 0 1.5838-1.0552 5.7432-1.3365 6.8238-.0451.1731-.1218.3322-.2351.4706-.5376.657-2.2925 2.6222-4.0474 2.6222-1.756 0-3.512-1.9676-4.0485-2.6234-.1126-.1377-.189-.2957-.2341-.4677-.2815-1.0729-1.3365-5.2024-1.3365-6.8255z" fill="#fff"/></g><g mask="url(#b)" stroke="#e1444d" stroke-linecap="square" stroke-width="2.82857"><path d="m24.8809 18.5834-11.2381 14.1667"/><path d="m13.6428 18.5834 11.2381 14.1667"/></g></g></svg>

<svg width="61" height="53" viewBox="0 0 61 53" fill="none" xmlns="http://www.w3.org/2000/svg">
<rect x="1.53036" y="3.53036" width="57.9393" height="41.4393" rx="3.7125" fill="white" stroke="#F5F5F5" stroke-width="1.06071"/>
<mask id="mask0" mask-type="alpha" maskUnits="userSpaceOnUse" x="1" y="3" width="59" height="43">
<rect x="1.53036" y="3.53036" width="57.9393" height="41.4393" rx="3.7125" fill="white" stroke="white" stroke-width="1.06071"/>
</mask>
<g mask="url(#mask0)">
<path fill-rule="evenodd" clip-rule="evenodd" d="M1 31.3334H60V17.1667H1V31.3334Z" fill="#17508F"/>
<path fill-rule="evenodd" clip-rule="evenodd" d="M1 17.1667H60V3H1V17.1667Z" fill="#E1444D"/>
<path fill-rule="evenodd" clip-rule="evenodd" d="M13.6428 24.2501C13.6428 22.8796 14.3666 19.8269 14.7751 18.2131C14.9318 17.5943 15.4907 17.1667 16.1291 17.1667H22.3972C23.0344 17.1667 23.5925 17.5926 23.7498 18.21C24.1585 19.8144 24.8809 22.8483 24.8809 24.2501C24.8809 25.8339 23.8257 29.9933 23.5444 31.0739C23.4993 31.247 23.4226 31.4061 23.3093 31.5445C22.7717 32.2015 21.0168 34.1667 19.2619 34.1667C17.5059 34.1667 15.7499 32.1991 15.2134 31.5433C15.1008 31.4056 15.0244 31.2476 14.9793 31.0756C14.6978 30.0027 13.6428 25.8732 13.6428 24.2501Z" fill="white"/>
<mask id="mask1" mask-type="alpha" maskUnits="userSpaceOnUse" x="13" y="17" width="12" height="18">
<path fill-rule="evenodd" clip-rule="evenodd" d="M13.6428 24.2501C13.6428 22.8796 14.3666 19.8269 14.7751 18.2131C14.9318 17.5943 15.4907 17.1667 16.1291 17.1667H22.3972C23.0344 17.1667 23.5925 17.5926 23.7498 18.21C24.1585 19.8144 24.8809 22.8483 24.8809 24.2501C24.8809 25.8339 23.8257 29.9933 23.5444 31.0739C23.4993 31.247 23.4226 31.4061 23.3093 31.5445C22.7717 32.2015 21.0168 34.1667 19.2619 34.1667C17.5059 34.1667 15.7499 32.1991 15.2134 31.5433C15.1008 31.4056 15.0244 31.2476 14.9793 31.0756C14.6978 30.0027 13.6428 25.8732 13.6428 24.2501Z" fill="white"/>
</mask>
<g mask="url(#mask1)">
<path d="M24.8809 18.5834L13.6428 32.7501" stroke="#E1444D" stroke-width="2.82857" stroke-linecap="square"/>
<path d="M13.6428 18.5834L24.8809 32.7501" stroke="#E1444D" stroke-width="2.82857" stroke-linecap="square"/>
</g>
</g>
</svg>
